X: 460
T:Chinese Breakdown
N: page 186
N: heptatonic
R: Reel
M:2/4
L:1/16
K:D
(3ABc|:"D"d2A2 B2A2|F2FF F2(3ABc|d2A2 B2A2|"A7"G2GG G2AB|
"A7"c2A2 B2A2|c2cc c2AB|c2A2 B2A2|"D"F2FF F2(3ABc|
"D"d2A2 B2A2|F2FF F2FE|D2F2 E2F2|"G"G2GG G2cd|
"A7"e2ee efed|c2cc cdcB|A2AA BAcA|"D"d2dd d2 (3ABc::
"D"[F2d2][d2f2] [d2f2]A2|[F2d2][d2f2] [d2f2][A2F2]|d2f2 e2d2|"A7"[c4e4] e2[=c2^g2]|
"A7"[c2a2][ca][ca] [c2a2][cb][ca]|g2gg gagf|e2^d2 e2=f2|"D"^f6 A2|
"D"[F2d2][d2f2] [d2f2]A2|[F2d2][d2f2] [d2f2]A2|d2f2 "G"g2"D7"f2|"G"B8|
"A7"e2ee efed|c2cc cdcB|A2AA BAcA|"D"d2dd d2 z2:|]
